Assets/add.svg

<?xml version="1.0" encoding="UTF-8" standalone="no"?>
<!DOCTYPE svg PUBLIC "-//W3C//DTD SVG 1.1//EN" "http://www.w3.org/Graphics/SVG/1.1/DTD/svg11.dtd">
<svg width="100%" height="100%" viewBox="0 0 80 80" version="1.1" xmlns="http://www.w3.org/2000/svg" xmlns:xlink="http://www.w3.org/1999/xlink" xml:space="preserve" xmlns:serif="http://www.serif.com/" style="fill-rule:evenodd;clip-rule:evenodd;stroke-linejoin:round;stroke-miterlimit:1.41421;">
    <g id="g25885" transform="matrix(0.8,0,0,0.8,-2704.8,3587.71)">
        <g id="path25536" transform="matrix(1.78567,0,0,1.78567,-2695.63,3484.16)">
            <circle cx="3431" cy="-4434.64" r="28" style="fill:rgb(211,47,47);"/>
        </g>
        <g id="path24098" transform="matrix(2.17622,0,0,2.17622,-4035.61,5216.11)">
            <path d="M3438,-4433.64L3432,-4433.64L3432,-4427.64L3430,-4427.64L3430,-4433.64L3424,-4433.64L3424,-4435.64L3430,-4435.64L3430,-4441.64L3432,-4441.64L3432,-4435.64L3438,-4435.64L3438,-4433.64Z" style="fill:white;fill-rule:nonzero;"/>
        </g>
    </g>
</svg>

<?xml version="1.0" encoding="UTF-8" standalone="no"?>
<!-- Created with Inkscape (http://www.inkscape.org/) -->

<svg
   xmlns:dc="http://purl.org/dc/elements/1.1/"
   xmlns:cc="http://creativecommons.org/ns#"
   xmlns:rdf="http://www.w3.org/1999/02/22-rdf-syntax-ns#"
   xmlns:svg="http://www.w3.org/2000/svg"
   xmlns="http://www.w3.org/2000/svg"
   xmlns:sodipodi="http://sodipodi.sourceforge.net/DTD/sodipodi-0.dtd"
   xmlns:inkscape="http://www.inkscape.org/namespaces/inkscape"
   width="80pt"
   height="80pt"
   viewBox="0 0 80 80"
   version="1.1"
   id="svg8"
   inkscape:version="0.92.3 (2405546, 2018-03-11)"
   sodipodi:docname="add.svg">
  <defs
     id="defs2">
    <filter
       id="filter4346"
       inkscape:label="z-depth2"
       style="color-interpolation-filters:sRGB"
       x="-1.1726542"
       width="3.3453083"
       y="-1.1726542"
       height="3.3453083">
      <feFlood
         id="feFlood4348"
         result="flood"
         flood-color="rgb(0,0,0)"
         flood-opacity="0.16" />
      <feComposite
         id="feComposite4350"
         result="composite1"
         operator="in"
         in2="SourceGraphic"
         in="flood" />
      <feOffset
         id="feOffset4354"
         result="offset"
         dy="3"
         dx="0" />
      <feComposite
         id="feComposite4356"
         result="fbSourceGraphic"
         operator="over"
         in2="offset"
         in="SourceGraphic" />
      <feColorMatrix
         id="feColorMatrix4358"
         values="0 0 0 -1 0 0 0 0 -1 0 0 0 0 -1 0 0 0 0 1 0"
         in="fbSourceGraphic"
         result="fbSourceGraphicAlpha" />
      <feFlood
         in="fbSourceGraphic"
         result="flood"
         flood-color="rgb(0,0,0)"
         flood-opacity="0.23"
         id="feFlood4360" />
      <feComposite
         result="composite1"
         operator="in"
         in="flood"
         in2="fbSourceGraphic"
         id="feComposite4362" />
      <feOffset
         result="offset"
         dy="3"
         dx="0"
         id="feOffset4366" />
      <feComposite
         result="composite2"
         operator="over"
         in="fbSourceGraphic"
         in2="offset"
         id="feComposite4368" />
    </filter>
    <filter
       id="filter4284"
       inkscape:label="z-depth1"
       style="color-interpolation-filters:sRGB;">
      <feFlood
         id="feFlood4286"
         result="flood"
         flood-color="rgb(0,0,0)"
         flood-opacity="0.12" />
      <feComposite
         id="feComposite4288"
         result="composite1"
         operator="in"
         in2="SourceGraphic"
         in="flood" />
      <feGaussianBlur
         id="feGaussianBlur4290"
         result="blur"
         stdDeviation="1.5"
         in="composite" />
      <feOffset
         id="feOffset4292"
         result="offset"
         dy="1"
         dx="0" />
      <feComposite
         id="feComposite4294"
         result="fbSourceGraphic"
         operator="over"
         in2="offset"
         in="SourceGraphic" />
      <feColorMatrix
         id="feColorMatrix4332"
         values="0 0 0 -1 0 0 0 0 -1 0 0 0 0 -1 0 0 0 0 1 0"
         in="fbSourceGraphic"
         result="fbSourceGraphicAlpha" />
      <feFlood
         in="fbSourceGraphic"
         result="flood"
         flood-color="rgb(0,0,0)"
         flood-opacity="0.24"
         id="feFlood4334" />
      <feComposite
         result="composite1"
         operator="in"
         in="flood"
         in2="fbSourceGraphic"
         id="feComposite4336" />
      <feGaussianBlur
         result="blur"
         stdDeviation="1"
         in="composite"
         id="feGaussianBlur4338" />
      <feOffset
         result="offset"
         dy="1"
         dx="0"
         id="feOffset4340" />
      <feComposite
         result="composite2"
         operator="over"
         in="fbSourceGraphic"
         in2="offset"
         id="feComposite4342" />
    </filter>
    <filter
       id="filter4346-3"
       inkscape:label="z-depth2"
       style="color-interpolation-filters:sRGB;">
      <feFlood
         id="feFlood4348-6"
         result="flood"
         flood-color="rgb(0,0,0)"
         flood-opacity="0.16" />
      <feComposite
         id="feComposite4350-7"
         result="composite1"
         operator="in"
         in2="SourceGraphic"
         in="flood" />
      <feGaussianBlur
         id="feGaussianBlur4352-5"
         result="blur"
         stdDeviation="3"
         in="composite" />
      <feOffset
         id="feOffset4354-3"
         result="offset"
         dy="3"
         dx="0" />
      <feComposite
         id="feComposite4356-5"
         result="fbSourceGraphic"
         operator="over"
         in2="offset"
         in="SourceGraphic" />
      <feColorMatrix
         id="feColorMatrix4358-6"
         values="0 0 0 -1 0 0 0 0 -1 0 0 0 0 -1 0 0 0 0 1 0"
         in="fbSourceGraphic"
         result="fbSourceGraphicAlpha" />
      <feFlood
         in="fbSourceGraphic"
         result="flood"
         flood-color="rgb(0,0,0)"
         flood-opacity="0.23"
         id="feFlood4360-2" />
      <feComposite
         result="composite1"
         operator="in"
         in="flood"
         in2="fbSourceGraphic"
         id="feComposite4362-9" />
      <feGaussianBlur
         result="blur"
         stdDeviation="3"
         in="composite"
         id="feGaussianBlur4364-1" />
      <feOffset
         result="offset"
         dy="3"
         dx="0"
         id="feOffset4366-2" />
      <feComposite
         result="composite2"
         operator="over"
         in="fbSourceGraphic"
         in2="offset"
         id="feComposite4368-7" />
    </filter>
    <filter
       id="filter4375"
       inkscape:label="z-depth3"
       style="color-interpolation-filters:sRGB;">
      <feFlood
         id="feFlood4377"
         result="flood"
         flood-color="rgb(0,0,0)"
         flood-opacity="0.19" />
      <feComposite
         id="feComposite4379"
         result="composite1"
         operator="in"
         in2="SourceGraphic"
         in="flood" />
      <feGaussianBlur
         id="feGaussianBlur4381"
         result="blur"
         stdDeviation="10"
         in="composite" />
      <feOffset
         id="feOffset4383"
         result="offset"
         dy="10"
         dx="0" />
      <feComposite
         id="feComposite4385"
         result="fbSourceGraphic"
         operator="over"
         in2="offset"
         in="SourceGraphic" />
      <feColorMatrix
         id="feColorMatrix4387"
         values="0 0 0 -1 0 0 0 0 -1 0 0 0 0 -1 0 0 0 0 1 0"
         in="fbSourceGraphic"
         result="fbSourceGraphicAlpha" />
      <feFlood
         in="fbSourceGraphic"
         result="flood"
         flood-color="rgb(0,0,0)"
         flood-opacity="0.23"
         id="feFlood4389" />
      <feComposite
         result="composite1"
         operator="in"
         in="flood"
         in2="fbSourceGraphic"
         id="feComposite4391" />
      <feGaussianBlur
         result="blur"
         stdDeviation="3"
         in="composite"
         id="feGaussianBlur4393" />
      <feOffset
         result="offset"
         dy="6"
         dx="0"
         id="feOffset4395" />
      <feComposite
         result="composite2"
         operator="over"
         in="fbSourceGraphic"
         in2="offset"
         id="feComposite4397" />
    </filter>
    <filter
       id="filter4419"
       inkscape:label="z-depth4"
       style="color-interpolation-filters:sRGB;">
      <feFlood
         id="feFlood4421"
         result="flood"
         flood-color="rgb(0,0,0)"
         flood-opacity="0.25" />
      <feComposite
         id="feComposite4423"
         result="composite1"
         operator="in"
         in2="SourceGraphic"
         in="flood" />
      <feGaussianBlur
         id="feGaussianBlur4425"
         result="blur"
         stdDeviation="14"
         in="composite" />
      <feOffset
         id="feOffset4427"
         result="offset"
         dy="14"
         dx="0" />
      <feComposite
         id="feComposite4429"
         result="fbSourceGraphic"
         operator="over"
         in2="offset"
         in="SourceGraphic" />
      <feColorMatrix
         id="feColorMatrix4431"
         values="0 0 0 -1 0 0 0 0 -1 0 0 0 0 -1 0 0 0 0 1 0"
         in="fbSourceGraphic"
         result="fbSourceGraphicAlpha" />
      <feFlood
         in="fbSourceGraphic"
         result="flood"
         flood-color="rgb(0,0,0)"
         flood-opacity="0.22"
         id="feFlood4433" />
      <feComposite
         result="composite1"
         operator="in"
         in="flood"
         in2="fbSourceGraphic"
         id="feComposite4435" />
      <feGaussianBlur
         result="blur"
         stdDeviation="5"
         in="composite"
         id="feGaussianBlur4437" />
      <feOffset
         result="offset"
         dy="10"
         dx="0"
         id="feOffset4439" />
      <feComposite
         result="composite2"
         operator="over"
         in="fbSourceGraphic"
         in2="offset"
         id="feComposite4441" />
    </filter>
    <filter
       id="filter4449"
       inkscape:label="z-depth5"
       style="color-interpolation-filters:sRGB;">
      <feFlood
         id="feFlood4451"
         result="flood"
         flood-color="rgb(0,0,0)"
         flood-opacity="0.3" />
      <feComposite
         id="feComposite4453"
         result="composite1"
         operator="in"
         in2="SourceGraphic"
         in="flood" />
      <feGaussianBlur
         id="feGaussianBlur4455"
         result="blur"
         stdDeviation="19"
         in="composite" />
      <feOffset
         id="feOffset4457"
         result="offset"
         dy="19"
         dx="0" />
      <feComposite
         id="feComposite4459"
         result="fbSourceGraphic"
         operator="over"
         in2="offset"
         in="SourceGraphic" />
      <feColorMatrix
         id="feColorMatrix4461"
         values="0 0 0 -1 0 0 0 0 -1 0 0 0 0 -1 0 0 0 0 1 0"
         in="fbSourceGraphic"
         result="fbSourceGraphicAlpha" />
      <feFlood
         in="fbSourceGraphic"
         result="flood"
         flood-color="rgb(0,0,0)"
         flood-opacity="0.22"
         id="feFlood4463" />
      <feComposite
         result="composite1"
         operator="in"
         in="flood"
         in2="fbSourceGraphic"
         id="feComposite4465" />
      <feGaussianBlur
         result="blur"
         stdDeviation="6"
         in="composite"
         id="feGaussianBlur4467" />
      <feOffset
         result="offset"
         dy="15"
         dx="0"
         id="feOffset4469" />
      <feComposite
         result="composite2"
         operator="over"
         in="fbSourceGraphic"
         in2="offset"
         id="feComposite4471" />
    </filter>
  </defs>
  <sodipodi:namedview
     id="base"
     pagecolor="#ffffff"
     bordercolor="#666666"
     borderopacity="1.0"
     inkscape:pageopacity="0.0"
     inkscape:pageshadow="2"
     inkscape:zoom="9.390625"
     inkscape:cx="39.68707"
     inkscape:cy="54.883088"
     inkscape:document-units="pt"
     inkscape:current-layer="g25885"
     showgrid="false"
     units="pt"
     inkscape:snap-bbox="false"
     inkscape:window-width="2560"
     inkscape:window-height="1471"
     inkscape:window-x="0"
     inkscape:window-y="55"
     inkscape:window-maximized="1" />
  <metadata
     id="metadata5">
    <rdf:RDF>
      <cc:Work
         rdf:about="">
        <dc:format>image/svg+xml</dc:format>
        <dc:type
           rdf:resource="http://purl.org/dc/dcmitype/StillImage" />
        <dc:title></dc:title>
      </cc:Work>
    </rdf:RDF>
  </metadata>
  <g
     inkscape:label="Layer 1"
     inkscape:groupmode="layer"
     id="layer1"
     transform="translate(0,-232.53335)">
    <g
       transform="matrix(0.80000002,0,0,0.80000002,-2704.8003,3820.2434)"
       id="g25885"
       style="display:inline;">
      <circle
         r="28"
         cy="-4434.6377"
         cx="3431"
         id="path25536"
         style="opacity:1;fill:#ff5722;fill-opacity:1;stroke:none;stroke-width:1;stroke-linecap:round;stroke-miterlimit:4;stroke-dasharray:none;stroke-opacity:1;filter:url(#filter4284)" />
      <path
         inkscape:connector-curvature="0"
         d="m 3438,-4433.6378 h -6 v 6 h -2 v -6 h -6 v -2 h 6 v -6 h 2 v 6 h 6 z"
         style="fill:#ffffff;fill-opacity:1;stroke:none"
         id="path24098" />
    </g>
  </g>
</svg>
